src/containers/site/SiteWalletScreen/asset/wallet_feature_1.svg

<svg width="88" height="88" viewBox="0 0 88 88" fill="none" xmlns="http://www.w3.org/2000/svg">
<path d="M16 22L64.9618 10.1147C68.0597 9.4516 71 11.747 71 14.8331V22" fill="url(#paint0_linear)"/>
<path d="M49.8067 54.1869V44.7872C49.8067 43.0782 51.2227 41.6798 52.9534 41.6798H76.9738V27.9557C76.9738 24.6671 74.2728 22 70.9425 22H16.0313C12.701 22 10 24.6671 10 27.9557V71.0443C10 74.3329 12.701 77 16.0313 77H70.9687C74.299 77 77 74.3329 77 71.0443V57.2943H52.9796C51.2227 57.2943 49.8067 55.896 49.8067 54.1869Z" fill="url(#paint1_linear)"/>
<path d="M57 53C58.6569 53 60 51.6569 60 50C60 48.3431 58.6569 47 57 47C55.3431 47 54 48.3431 54 50C54 51.6569 55.3431 53 57 53Z" fill="url(#paint2_linear)"/>
<defs>
<linearGradient id="paint0_linear" x1="19.0813" y1="23.3636" x2="62.5994" y2="0.137571" gradientUnits="userSpaceOnUse">
<stop stop-color="#5C8BFC"/>
<stop offset="1" stop-color="#84B0FF"/>
</linearGradient>
<linearGradient id="paint1_linear" x1="10.0013" y1="76.9981" x2="76.9907" y2="76.9981" gradientUnits="userSpaceOnUse">
<stop stop-color="#FFB300"/>
<stop offset="1" stop-color="#FF8E37"/>
</linearGradient>
<linearGradient id="paint2_linear" x1="54.0137" y1="52.9908" x2="59.9908" y2="52.9908" gradientUnits="userSpaceOnUse">
<stop stop-color="#FFB300"/>
<stop offset="1" stop-color="#FF8E37"/>
</linearGradient>
</defs>
</svg>

<svg width="88" height="88" fill="none" xmlns="http://www.w3.org/2000/svg"><path d="M16 22l48.962-11.885C68.06 9.452 71 11.747 71 14.833V22" fill="url(#paint0_linear)"/><path d="M49.807 54.187v-9.4c0-1.709 1.416-3.107 3.146-3.107h24.02V27.956c0-3.289-2.7-5.956-6.03-5.956H16.03C12.701 22 10 24.667 10 27.956v43.088C10 74.333 12.701 77 16.031 77H70.97C74.299 77 77 74.333 77 71.044v-13.75H52.98c-1.757 0-3.173-1.398-3.173-3.107z" fill="url(#paint1_linear)"/><path d="M57 53a3 3 0 100-6 3 3 0 000 6z" fill="url(#paint2_linear)"/><defs><linearGradient id="paint0_linear" x1="19.081" y1="23.364" x2="62.599" y2=".138" gradientUnits="userSpaceOnUse"><stop stop-color="#5C8BFC"/><stop offset="1" stop-color="#84B0FF"/></linearGradient><linearGradient id="paint1_linear" x1="10.001" y1="76.998" x2="76.991" y2="76.998" gradientUnits="userSpaceOnUse"><stop stop-color="#FFB300"/><stop offset="1" stop-color="#FF8E37"/></linearGradient><linearGradient id="paint2_linear" x1="54.014" y1="52.991" x2="59.991" y2="52.991" gradientUnits="userSpaceOnUse"><stop stop-color="#FFB300"/><stop offset="1" stop-color="#FF8E37"/></linearGradient></defs></svg>
